X: 182
T: Zizhao de duixiang xinzhong ai
%%abc-version 2.0
%%abcx-abcm2ps-target-version 5.9.1 (29 Sep 2008)
%%abc-creator hum2abc beta
%%abcx-conversion-date 2013/10/02 07:52:29
%%abc-edited-by Helmut Schaffrath
%%humdrum-veritas 3304689188
%%humdrum-veritas-data 2671440563
%%continueall 1
%%barnumbers 0
L: 1/16
M: 2/4
K: C
d2> e2 d2 c2 [I:setbarnb 1]| 
d2A4A2 | 
c2 B A G A F G | 
A8 | 
A2> d2 c2 A2 | 
c2 E2 G2 A2 | 
E E2 DC4 | 
G G2 A E G E C | 
D8 |]  



